static/assets/images/tokens/susde.svg

<svg width="256" height="256" viewBox="0 0 256 256" fill="none" xmlns="http://www.w3.org/2000/svg">
<path d="M128 256C161.948 256 194.505 242.514 218.51 218.51C242.514 194.505 256 161.948 256 128C256 94.0523 242.514 61.495 218.51 37.4903C194.505 13.4857 161.948 0 128 0C94.0523 0 61.495 13.4857 37.4903 37.4903C13.4857 61.495 0 94.0523 0 128C0 161.948 13.4857 194.505 37.4903 218.51C61.495 242.514 94.0523 256 128 256Z" fill="#F6F6F6"/>
<path fill-rule="evenodd" clip-rule="evenodd" d="M108.296 26C84.7021 30.5904 63.4382 43.2532 48.1496 61.8174C32.861 80.3817 24.5 103.691 24.5 127.75C24.5 151.809 32.861 175.118 48.1496 193.683C63.4382 212.247 84.7021 224.91 108.296 229.5V219.788C87.2599 215.27 68.4073 203.669 54.8835 186.92C41.3597 170.17 33.9824 149.286 33.9824 127.75C33.9824 106.214 41.3597 85.3296 54.8835 68.5802C68.4073 51.8308 87.2599 40.2295 108.296 35.7116V26ZM147.866 35.7116V26C171.425 30.6227 192.647 43.2951 207.903 61.8496C223.159 80.4042 231.5 103.688 231.5 127.718C231.5 151.749 223.159 175.032 207.903 193.587C192.647 212.141 171.425 224.814 147.866 229.437V219.725C168.87 215.179 187.685 203.57 201.179 186.829C214.673 170.089 222.033 149.228 222.033 127.718C222.033 106.208 214.673 85.3472 201.179 68.6071C187.685 51.867 168.87 40.2577 147.866 35.7116Z" fill="black"/>
<path d="M142.965 123.958C150.928 125.476 157.043 128.385 161.439 132.623C165.834 136.861 168 142.174 168 148.751V159.061C168 166.84 165.133 173.165 159.464 178.035C153.082 182.98 145.127 185.492 137.041 185.119H133.856V201.5H122.835V185.056H119.459C113.344 185.056 107.993 183.791 103.279 181.071C98.6202 178.291 94.8279 174.285 92.3221 169.497C89.774 164.437 88.5 158.681 88.5 152.103H99.5204C99.5204 158.744 101.304 164.121 104.999 168.358C106.868 170.382 109.158 171.978 111.71 173.037C114.261 174.096 117.014 174.593 119.778 174.493H136.722C142.71 174.493 147.552 173.102 151.246 170.319C152.992 169.007 154.399 167.302 155.352 165.345C156.304 163.388 156.775 161.234 156.725 159.061V148.751C156.725 145.083 155.323 141.984 152.584 139.391C149.538 136.655 145.708 134.93 141.627 134.457L114.108 129.65C107.347 128.723 101.057 125.689 96.1442 120.985C91.8762 116.558 89.774 111.056 89.774 104.415V95.6863C89.774 87.9068 92.4495 81.6453 97.9916 77.0282C104.252 72.0851 112.107 69.5678 120.096 69.9444H122.835V53.5H133.792V69.9444H137.359C141.239 69.7861 145.108 70.4486 148.711 71.888C152.313 73.3273 155.566 75.5107 158.254 78.2932C163.541 83.7325 166.153 90.9427 166.153 99.9872H155.196C155.446 94.8156 153.691 89.7454 150.291 85.8197C148.651 84.0575 146.646 82.6698 144.413 81.7525C142.18 80.8352 139.774 80.4102 137.359 80.5068H120.096C114.299 80.5068 109.649 81.8983 106.209 84.6812C102.769 87.4009 100.986 91.006 100.986 95.6231V104.351C100.986 108.146 102.26 111.309 104.808 113.838C107.483 116.368 111.114 118.139 115.637 118.962L143.029 124.021L142.965 123.958Z" fill="black"/>
</svg>

<svg xmlns="http://www.w3.org/2000/svg" fill="none" viewBox="0 0 256 256"><path fill="#F6F6F6" d="M128 256a128 128 0 0 0 90.51-37.49 128.003 128.003 0 0 0 0-181.02A128.001 128.001 0 1 0 128 256"/><path fill="#000" fill-rule="evenodd" d="M108.296 26A103.54 103.54 0 0 0 48.15 61.817 103.7 103.7 0 0 0 24.5 127.75c0 24.059 8.361 47.368 23.65 65.933a103.53 103.53 0 0 0 60.146 35.817v-9.712a94.03 94.03 0 0 1-53.413-32.868 94.2 94.2 0 0 1-20.9-59.17 94.2 94.2 0 0 1 20.9-59.17 94.03 94.03 0 0 1 53.413-32.868zm39.57 9.712V26a103.54 103.54 0 0 1 60.037 35.85 103.7 103.7 0 0 1 23.597 65.868c0 24.031-8.341 47.314-23.597 65.869a103.54 103.54 0 0 1-60.037 35.85v-9.712a94.02 94.02 0 0 0 53.313-32.896 94.2 94.2 0 0 0 20.854-59.111 94.2 94.2 0 0 0-20.854-59.11 94.03 94.03 0 0 0-53.313-32.896" clip-rule="evenodd"/><path fill="#000" d="M142.965 123.958c7.963 1.518 14.078 4.427 18.474 8.665 4.395 4.238 6.561 9.551 6.561 16.128v10.31c0 7.779-2.867 14.104-8.536 18.974a34.06 34.06 0 0 1-22.423 7.084h-3.185V201.5h-11.021v-16.444h-3.376c-6.115 0-11.466-1.265-16.18-3.985a29.3 29.3 0 0 1-10.957-11.574c-2.548-5.06-3.822-10.816-3.822-17.394h11.02c0 6.641 1.784 12.018 5.479 16.255a19.1 19.1 0 0 0 6.711 4.679 19.2 19.2 0 0 0 8.068 1.456h16.944q8.983 0 14.524-4.174a13.76 13.76 0 0 0 4.106-4.974 13.65 13.65 0 0 0 1.373-6.284v-10.31c0-3.668-1.402-6.767-4.141-9.36a19.8 19.8 0 0 0-10.957-4.934l-27.519-4.807a32.32 32.32 0 0 1-17.964-8.665c-4.268-4.427-6.37-9.929-6.37-16.57v-8.729c0-7.78 2.675-14.04 8.218-18.658a33.16 33.16 0 0 1 22.104-7.084h2.739V53.5h10.957v16.444h3.567c3.88-.158 7.749.505 11.352 1.944a27.4 27.4 0 0 1 9.543 6.405c5.287 5.44 7.899 12.65 7.899 21.694h-10.957a20.15 20.15 0 0 0-4.905-14.167 16.7 16.7 0 0 0-5.878-4.067 16.8 16.8 0 0 0-7.054-1.246h-17.263c-5.797 0-10.447 1.391-13.887 4.174-3.44 2.72-5.223 6.325-5.223 10.942v8.728q0 5.693 3.822 9.487c2.675 2.53 6.306 4.301 10.829 5.124l27.392 5.059z"/></svg>
